X:134
T:Humors of Whiskey, The  
B:CRE2.100 (PlÃÂÃÂÃÂÃÂ©arÃÂÃÂÃÂÃÂ¡ca an Fuisce)
F:file ID: cre.2/134hu_whisk
L:1/8
M:9/8
R:slip jig
Q:160
K:G
BEE BEF G2A|BEE BAG FGA|BEE BEF G2A|Bcd ABG FGA:|
ded cAF G3|ded def gfe|ded cAF G2A|Bcd ABG FGA|
ded cAF G3|ded def gfe|agf gfe f2d|gf/e/d cAG FGA||

%%%

